X:537
T:B537-  You London Lads Be Merry, or Moggie's Jealousy
Q:1/4=120
L:1/4
M:9/4
K:Dm
c|d2AA2GFGA|ABcc3/2d/cB2c|d2AA2GFGA|\
G2dd3/2e/fd2A|A2ddefd2A|A3/2B/ccdcB2c|d2AA2G^FEF|\
G3/2F/GA3/2B/cd2|]

